build/images/fb-icons/buttons.svg

<svg xmlns="http://www.w3.org/2000/svg" preserveAspectRatio="xMidYMid" width="22" height="33" viewBox="0 0 22 33"><defs><style>.cls-1{fill:#777;fill-rule:evenodd}</style></defs><path d="M20.008 27.678a7.558 7.558 0 0 1-.131.122l-.043-.081.174-.041zm.844-.896l-1.135.264-.874.204.206.387.315.594 1.814 3.453-2.17 1.333-1.836-3.494-.317-.598-.175-.329-.506.572-.791.893-.998 1.127-.075-.991-.052-.681-.052-.685-.196-7.812 6.346 4.253.521.397.519.393.598.454-1.142.266zM9.261 15S0 15.482 0 12.505v-9.01C0 .518 9.261 1 9.261 1S19 .345 19 3.495v9.01C19 15.655 9.261 15 9.261 15zm7.293 14.754a.332.332 0 0 0-.029.01l.021-.024.008.014z" class="cls-1"/></svg>

<svg xmlns="http://www.w3.org/2000/svg" xmlns:xlink="http://www.w3.org/1999/xlink" preserveAspectRatio="xMidYMid" width="22" height="33" viewBox="0 0 22 33">
  <defs>
    <style>
      .cls-1 {
        fill: #777;
        fill-rule: evenodd;
      }
    </style>
  </defs>
  <path d="M20.008,27.678 C19.965,27.719 19.921,27.760 19.877,27.800 L19.834,27.719 L20.008,27.678 ZM20.852,26.782 L19.717,27.046 L18.843,27.250 L19.049,27.637 L19.364,28.231 L21.178,31.684 L19.008,33.017 L17.172,29.523 L16.855,28.925 L16.680,28.596 L16.174,29.168 L15.383,30.061 L14.385,31.188 L14.310,30.197 L14.258,29.516 L14.206,28.831 L14.010,21.019 L20.356,25.272 L20.877,25.669 L21.396,26.062 L21.994,26.516 L20.852,26.782 ZM9.261,15.000 C9.261,15.000 -0.000,15.482 -0.000,12.505 L-0.000,3.495 C-0.000,0.518 9.261,1.000 9.261,1.000 C9.261,1.000 19.000,0.345 19.000,3.495 L19.000,12.505 C19.000,15.655 9.261,15.000 9.261,15.000 ZM16.554,29.754 C16.544,29.757 16.535,29.760 16.525,29.764 L16.546,29.740 L16.554,29.754 Z" class="cls-1"/>
</svg>
